X: 1
T: \vSano Du\vso  [C]
T: Vranjanka
N: (Lesnoto)
O: Srbija
R: lesnoto
Z: 1998 John Chambers <jc:trillian.mit.edu>
N: This song is traditionally sung in both waltz and lesnoto rhythms.
M: 7/8
L: 1/8
K: C
|: "Fm"[c2_A][cA] [c2A] [c2A] | "G"[B2G][_AF] [GE][AF] [BG][cA] | "Fm"[B2G][_AF] [B2G] [A2F] | "C"[G3E] [G4E] :|
w: 1.~\vSa-no du-\vso, \vSa-no mo-*ri,* ot-vo-ri mi vra-ta.
w: 2.~No\'c li ho-di, div-no \vSa-*no,* ja si tu-ga vi-jem.
w: 3.~Tvo-je li-ce be-lo, \vSa-*no,* sneg je za pla-ni-ne.
[| "F"[=A2F][AF] [A2F] [A2F] | [A2F][GE] [AF][BG] [c2A] | "G7"[G2E][AF] [G2E] [F2D] | "C"[E3C] [E4C] |]
w:    Ot-vo-ri mi, \vSa-no, vra-*ta, da ti dam du-ka-ta.
w:    U-ba-vi-nja tvo-ja, \vSa-*no, ne da mi da spi-jem.
w:    Tvo-je \'ce-lo gi-di, \vSa-*no, ka-ko me-se-\'ci-ne.
[| "C"[E2C][FD] [G2E] [FD][EC] | "Dm"[DA,][D2A,] [A4F] | "G7"[G2D][AD] [G2D] [F2D] | "C"[E3C] [E4C] |
w:    Oj, le le le le le le le, iz-go-re za te-be,
|  "C"[E2C][FD] [G2E] ([FD][EC]) | "Dm"[D3A,] [A4F] | "G7"([G2D2][AD]) [G2D] [F2D] | "C"[E3C] [E4C] |]
w:    Iz-go-re mi,* \vSa-no, sr-*ce za te-be.

%%sep 2 1 500

